!!!OTL: Graserin und Reiter Wou genga in Summa doeia Maidla hin,
!!!ARE: Europa, Osteuropa, Tschechoslowakei, Eger
!!!ARD: Europa%Osteuropa%Ceska Republika@Eger:
!!!ARL: 50.06/12.36:
!!!YOR: 7, S. 132
!!    1934 aufgezeichnet
!!!SCT: Q0149C
!!!YEM: Copyright 1995, estate of Helmut Schaffrath.
**kern
*ICvox
*Ivox
*M6/8
*k[f#]
*G:
{8d
=1
8b
8b
8a
8g
8g
16e
16d
=2
4d
8B
4d}
{8d
=3
8e
8e
8e
4f#
8f#
=4
4.g
4r}
{8d
=5
4cc
8cc
4cc
8d
=6
4.b
4dd}
{8d
=7
4cc
8cc
4cc
8d
=8
4.b
4dd}
{16cc
16a
=9
4a
8cc
4cc
8f#
=10
4.g
4r}
==
!!!AGN: Ballade, Verfuehrung, Verlassen des Elternhauses
!! Verzierung (Vorschlag) .
!!!ONB: ESAC (Essen Associative Code) Database: BALLADE
!!!AMT: compound duple
!!!AIN: vox
!!!EED: Helmut Schaffrath
!!!EEV: 1.0
*-
!!!title: @{OTL} [@{SCT}]
